X:1
T:Title
%%score 1 2 3 4
L:1/8
Q:1/4=150
M:4/4
K:E
V:1 treble nm="Church Organ, Soprano"
V:2 treble nm="French Horn, Alto"
V:3 bass nm="Trombone, Tenor"
V:4 bass nm="Tuba, Bass"
V:1
 B4 A4 | G4 z4 | G4 F4 | E4 z4 | E4 G4 | F4 B4 | B4 ^A4 | B4 z4 | B4 A4 | G4 z2 G2 | G4 F4 | %11
w: By~Trier~Gesangbuch *|||||||||||
 E4 z4 | E4 G4 | F4 B4 | B4 ^A4 | B4 z4 | e4 =d4 | c4 z2 c2 | c4 B4 | A4 z4 | G4 F4 | G4 B4 | %22
w: |||||||||||
 G4 F4 | E4 z4 |] %24
w: ||
V:2
 B,4 C2 D2 | E4 z4 | E4 B,2 A,2 | G,4 z4 | B,4 E4 | F4 E2 D2 | C4 C4 | D4 z4 | B,4 C2 D2 | %9
w: Si lent~ *|night!~|hal low'd~ *|night!~|Earth~ is~|hushed,~ * *|Heav'n~ a|light!~|An gels~ *|
 E4 z2[K:bass] E2 | E4 B,2 A,2 | G,4 z4 | B,4 E4 | F4 E2 D2 | C4 C4 | D4 z4 | E4 F4 | G4 z2 A2 | %18
w: throng~ the~|star lit~ *|air,~|Whisp 'ring~|round~ the~ *|Child~ so~|fair:~|"Sleep,~ *|sleep,~ O~|
 F4 G4 | A4 z4 | E8- | E4 D2 C2 | B,4 B,4 | G,4 z4 |] %24
w: Ba by~|King!~|Sleep,"~|* they~ *|soft ly~|sing.~|
V:3
 G,4 A,4 | B,4 z4 | E,4 B,4 | B,4 z4 | G,4 B,4 | B,4 F,4 | F,4 F,4 | F,4 z4 | G,4 A,4 | %9
 B,4 z2 E,2 | E,4 B,4 | B,4 z4 | G,4 B,4 | B,4 F,4 | F,4 F,4 | F,4 z4 | B,8 | B,4 z2 A,2 | %18
 A,4 B,4 | C4 z4 | C8 | G,4 F,4 | B,4 D,4 | E,4 z4 |] %24
V:4
 G,4 F,4 | E,4 z4 | C,4 D,4 | E,4 z4 | G,4 F,2 E,2 | D,4 B,,4 | F,4 F,4 | B,,4 z4 | G,4 F,4 | %9
 E,4 z2 C,2 | C,4 D,4 | E,4 z4 | G,4 F,2 E,2 | D,4 B,,4 | F,4 F,4 | B,,4 z4 | G,4 F,4 | %17
 ^E,4 z2 F,2 | F,4 F,4 | F,4 z4 | C,8- | C,4 D,4 | E,4 B,,4 | E,4 z4 |] %24

